X: 45
T: Swipsey
C: Scott Joplin
%%abc-version 2.0
%%abcx-abcm2ps-target-version 5.9.1 (29 Sep 2008)
%%abc-creator hum2abc beta
%%abcx-conversion-date 2021/07/20 09:00:57
%%abc-copyright 2021 Craig Stuart Sapp
%%abc-edited-by Craig Stuart Sapp
%%abc-edited-by Craig Stuart Sapp
%%abcx-initial-encoding-date 2005/04/08
%%humdrum-veritas 367914620
%%humdrum-veritas-data 1498199681
%%removed 0's from note length
%%linebreak <none>
%%barnumbers 0
L: 1/8
M: 2/4
N: Derived from swipesy.krn
Q: "Slow." 1/4=72
%%staves {1 2}
V: 1 clef=treble
V: 2 clef=bass
K: Bb
[V:1] F/!accent!f^c/ d=c | 
[V:2] F,/!accent!F^C/ D=C | 
[V:1] BD E=E | 
[V:2] B,D, E,=E, | 
[V:1] F/!accent!B^G/ A=G | 
[V:2] F,/!accent!B,^G,/ A,=G, | 
[V:1] Ff [g=e][a_e] ]|:  
[V:2] F,[DD,] [_D_D,][CC,] ]|:  
[V:1] [b/d/][bd]f/ a/g/f/d/ | 
[V:2] [B,B,,][DB,F,] F,,[FDF,] | 
[V:1] f/gf/ dB | 
[V:2] B,,[DB,F,] F,,[FDF,] | 
[V:1] B/dB/ [A^F][d/F/]G/- | 
[V:2] [DG,][DB,G,] [DA,^F,D,][DA,F,D,] | 
[V:1] G2z/ BG/ | 
[V:2] [DB,G,][DB,G,] [DB,G,][DB,G,] | 
[V:1] B/c/B/G/ B/c/B/G/ | 
[V:2] [E,E,,][F,F,,] [G,G,,][A,A,,] | 
[V:1] B/[dF]B/[d2G2] | 
[V:2] [B,B,,][DB,F,] [G,G,,][DB,G,] | 
[V:1] c/[bc][a/c/]- [a/c/]=e/[gc] | 
[V:2] C,[=ECB,] C,[ECB,] | 
[V:1] [c'/_e/]f/[a/e/]f/ g/[ae]f/ | 
[V:2] [F,F,,][^F,^F,,] [G,G,,][A,A,,] | 
[V:1] [b/d/][bd]f/ a/g/f/d/ | 
[V:2] [B,B,,][DB,F,] F,,[DB,F,] | 
[V:1] f/gf/ dB | 
[V:2] B,,[DB,F,] F,,[B,F,] | 
[V:1] B/dB/ [A^F][d/F/]G/- | 
[V:2] [DB,G,][DB,G,] [DA,^F,D,][DA,F,D,] | 
[V:1] G2z/ BG/ | 
[V:2] [DB,G,][DB,G,] [DB,G,][DB,G,] | 
[V:1] B/c/B/G/ B/c/B/G/ | 
[V:2] [E,E,,][F,F,,] [G,G,,][A,A,,] | 
[V:1] B/[dF]B/[d2F2] | 
[V:2] [B,B,,][DB,F,] G,,[=B,G,F,] | 
[V:1] [G=E]<[dE] [A/F/][cF][B/F/]- |[1 
[V:2] C,[_B,G,] F,[EA,] | 
[V:1] [B/F/]F/G/A/ B/c/d/f/ :|][2 
[V:2] [DB,][ECF,] [DB,] z :|]  
[V:1] [B/F/]F/G/A/ BF ]|: 
[V:2] [DB,][ECF,] [DB,] z ]|:  
[V:1] A/[eF]c/ d/c/A/F/ | 
[V:2] [CC,][EA,F,] F,,[EA,F,] | 
[V:1] A/[eF]c/ d/c/A/F/ | 
[V:2] C,[EA,F,] F,,[EA,F,] | 
[V:1] B/dB/G2 | 
[V:2] B,,[DB,F,] D,[DB,F,] | 
[V:1] z/ [dBG]c/ d/c/B/G/ | 
[V:2] [G,G,,][DB,G,] [G,G,,][DB,G,] | 
[V:1] A/[d^F]c/[A2F2]- | 
[V:2] [D,D,,][DC^F,] [D,D,,][DCF,] | 
[V:1] [A4F4] | 
[V:2] [D,D,,][E,/E,,/][D,/D,,/]- [D,/D,,/][C,/C,,/][B,,/B,,,/][A,,/A,,,/] | 
[V:1] B/dB/G2 | 
[V:2] [G,,G,,,][DB,G,] B,,[DB,G,] | 
[V:1] z/ [dBG]c/ d/c/B/G/ | 
[V:2] G,,[DB,G,] [DB,G,][DB,G,] | 
[V:1] A/[eF]c/ d/c/A/F/ | 
[V:2] C,[EA,F,] F,,[EA,F,] | 
[V:1] A/[eF]c/ d/c/A/F/ | 
[V:2] C,[EA,F,] F,,[EA,F,] | 
[V:1] B/dB/G2 | 
[V:2] B,,[DB,F,] D,[DB,F,] | 
[V:1] z/ [dBG]c/ d/c/B/G/ | 
[V:2] [G,G,,][DB,G,] [DB,G,][DB,G,] | 
[V:1] B/c/B/G/ B/c/B/G/ | 
[V:2] [E,E,,][F,F,,] [G,G,,][A,A,,] | 
[V:1] B/[dF]B/[d2F2] | 
[V:2] [B,B,,][DB,F,] G,,[=B,G,F,] | 
[V:1] [G=E]<[dE] [A/F/][cF][B/F/]- |[1 
[V:2] C,[_B,G,] F,[_EA,] | 
[V:1] [BF]{/g}f {/g} fF :|][2 
[V:2] [DB,] z z [=B,=B,,] :|]  
[V:1] [BF]f [g=e][a_e] | 
[V:2] [DB,][DD,] [_D_D,][CC,] | 
[V:1] [K:clef=treble][b/d/][bd]f/ a/g/f/d/ | 
[V:2] [K:clef=bass][B,B,,][DB,F,] F,,[DB,F,] | 
[V:1] f/gf/ dB | 
[V:2] B,,[DB,F,] F,,[DB,F,] | 
[V:1] B/dB/ [A^F][d/F/]G/- | 
[V:2] [DB,G,][DB,G,] [DA,^F,D,][DA,F,D,] | 
[V:1] G2z/ BG/ | 
[V:2] [DB,G,][DB,G,] [DB,G,][DB,G,] | 
[V:1] B/c/B/G/ B/c/B/G/ | 
[V:2] [E,E,,][F,F,,] [G,G,,][A,A,,] | 
[V:1] B/[dF]B/[d2G2] | 
[V:2] [B,B,,][DB,F,] [G,G,,][DB,G,] | 
[V:1] c/[bc][a/c/]- [a/c/]=e/[gc] | 
[V:2] C,[=ECB,] C,[ECB,] | 
[V:1] [c'/_e/]f/[a/e/]f/ g/[ae]f/ | 
[V:2] [F,F,,][^F,^F,,] [G,G,,][A,A,,] | 
[V:1] [b/d/][bd]f/ a/g/f/d/ | 
[V:2] [B,B,,][DB,F,] F,,[DB,F,] | 
[V:1] f/gf/ dB | 
[V:2] B,,[DB,F,] F,,[DB,F,] | 
[V:1] B/dB/ [A^F][d/F/]G/- | 
[V:2] [DB,G,][DB,G,] [DA,^F,D,][DA,F,D,] | 
[V:1] G2z/ BG/ | 
[V:2] [DB,G,][DB,G,] [DB,G,][DB,G,] | 
[V:1] B/c/B/G/ B/c/B/G/ | 
[V:2] [E,E,,][G,F,,] [G,G,,][A,A,,] | 
[V:1] B/[dF]B/[d2F2] | 
[V:2] [B,B,,][DB,F,] G,,[=B,G,F,] | 
[V:1] [G=E]<[dE] [A/F/][cF][B/F/]- | 
[V:2] C,[_DB,] F,[EA,] | 
[V:1] [B/F/]F/G/A/ Bb/a/ ||  
[V:2] [DB,][ECF,] [DB,][B,/B,,/][C/C,/] ||  
[V:1]  [K:Eb] _af/f/- f/c/d/e/ | 
[V:2]  [K:Eb] [DD,][DB,A,] B,,[DB,A,] | 
[V:1] [gdA][f/d/A/][f/d/A/]- [f/d/A/]B/c/d/ | 
[V:2] F,[DB,A,] B,,[DB,A,] | 
[V:1] [fG][e/G/][e/G/]- [e/G/]G/A/B/ | 
[V:2] E,[EB,G,] B,,[EB,G,] | 
[V:1] [cG][B/G/][B/G/]- [B/G/]G/F/E/ | 
[V:2] E,[EB,G,] B,,[EB,G,] | 
[V:1] z/ D/F/A/ d/[cA]d/ | 
[V:2] F,[DB,A,] B,,[DB,A,] | 
[V:1] [cA][c/A/][c/A/]- [c/A/]B/A/F/ | 
[V:2] F,[DB,A,] B,,[DB,A,] | 
[V:1] z/ E/G/B/ e/[cG]e/ | 
[V:2] E,[EB,G,] B,,[EB,G,] | 
[V:1] [cG][B/G/][B/G/]- [BG]b/=a/ | 
[V:2] E,[EB,G,] [EB,G,][B,/B,,/][C/C,/] | 
[V:1] _af/f/- f/c/d/e/ | 
[V:2] [DD,][DB,A,] B,,[DB,A,] | 
[V:1] [gdA][f/d/A/][f/d/A/]- [f/d/A/]B/c/d/ | 
[V:2] F,[DB,A,] B,,[DB,A,] | 
[V:1] [fG][e/G/][e/G/]- [e/G/]G/A/B/ | 
[V:2] E,[EB,G,] B,,[EB,G,] | 
[V:1] [cG][B/G/][B/G/]- [B/G/]B/e/g/ | 
[V:2] E,[EB,G,] B,,[EB,G,] | 
[V:1] z/ =e/g/b/ _d'/c'[b/c/]- | 
[V:2] [C,C,,][=ECB,] [=E,=E,,][ECB,] | 
[V:1] [b/c/]a/[g=ecB] [fcA][^fec] | 
[V:2] [F,F,,][G,G,,] [A,A,,][=A,=A,,] | 
[V:1] g/bg/ [fe=A][f/_A/][e/G/]- |[1 
[V:2] [B,B,,][EB,G,] [C,C,,][D,D,,] | 
[V:1] [e/G/]gc'/ bb/=a/ :|][2 
[V:2] [E,E,,][EB,G,] [EB,G,][B,/B,,/][C/C,/] :|]  
[V:1] [eG][bad] [e'bge]F || 
[V:2] [E,E,,][B,,B,,,] [E,,E,,,] z ||  
[V:1]  [K:Bb] f/[dBF]f/[d2B2F2] | 
[V:2]  [K:Bb] B,,[DB,F,] F,,[DB,F,] | 
[V:1] f/[dBF]f< [dBF][B/G/]- | 
[V:2] B,,[DB,F,] F,,[DB,F,] | 
[V:1] [B/G/]c/[d/G/]B/ [c/G/]d/[c/G/][B/F/]- | 
[V:2] [E,E,,][F,F,,] [G,G,,][A,A,,] | 
[V:1] [B2F2]-[B3/F3/]F/ | 
[V:2] [B,B,,][DB,F,] F,,[DB,F,] | 
[V:1] f/[dBF]f/[d2B2F2] | 
[V:2] B,,[DB,F,] F,,[DB,F,] | 
[V:1] f/[dBF]f< [dBF][G/=E/]- | 
[V:2] B,,[DB,F,] F,,[DB,F,] | 
[V:1] [G=E][d=E] [c/E/][dE][c/A/F/]- | 
[V:2] C,[B,G,] C,[B,G,] | 
[V:1] [cAF]!accent![fF] !accent![=e=E]!accent![_e_E] | 
[V:2] [F,F,,]!accent![F,F,,] !accent![G,G,,]!accent![A,A,,] | 
[V:1] f/[dBF]f/[d2B2F2] | 
[V:2] B,,[DB,F,] F,,[DB,F,] | 
[V:1] f/[dBF]f< [dBF][B/G/]- | 
[V:2] B,,[DB,F,] F,,[DB,F,] | 
[V:1] [B/G/]c/[BG] [c/G/]B/[c/G/][d/^F/]- | 
[V:2] [E,E,,][E,E,,] [E,E,,][E,E,,] | 
[V:1] [d2F2]-[d3/F3/]B/ | 
[V:2] [D,D,,][A,A,,] [^F,^F,,][D,D,,] | 
[V:1] d/B/c/d/ c/B/_A/d/ | 
[V:2] [B,B,,][_A,_A,,] [G,G,,][F,F,,] | 
[V:1] [eG]d/c/- c/B/G/B/ | 
[V:2] [E,E,,][CG,E,] [=E,=E,,][^CB,E,] | 
[V:1] F/[fF][d/F/] [cB=E][c/_E/][B/D/]- |[1 
[V:2] [F,F,,][DB,F,] [G,G,,][A,A,,] | 
[V:1] [BD]<[fF] [fF][fAF] :|][2 
[V:2] [B,B,,][DB,F,] [DB,F,][_ECF,] :|]  
[V:1] [B/D/]B/d/f/ !accent![bB] z | 
[V:2] [B,B,,][F,F,,] !accent![B,,B,,,] z | 


